source/img/form/radio-checked-active.svg

<svg width="52" height="52" viewBox="0 0 52 52" fill="none" xmlns="http://www.w3.org/2000/svg">
<path d="M25.8884 2.87372C39.1193 2.87372 49.8137 13.3997 49.8137 26.346C49.8137 39.2919 39.1193 49.8182 25.8884 49.8182C12.6574 49.8182 1.96299 39.2919 1.96299 26.346C1.96299 13.3997 12.6574 2.87372 25.8884 2.87372Z" stroke="black" stroke-opacity="0.3" stroke-width="2"/>
<path fill-rule="evenodd" clip-rule="evenodd" d="M26.2395 16.3934C31.664 16.3934 36.0614 20.7903 36.0614 26.2148C36.0614 31.6392 31.664 36.0366 26.2395 36.0366C20.8151 36.0366 16.4177 31.6392 16.4177 26.2148C16.4177 20.7903 20.8151 16.3934 26.2395 16.3934Z" fill="#62D1BA"/>
</svg>

<svg width="52" height="52" fill="none" xmlns="http://www.w3.org/2000/svg"><path d="M25.888 2.874c13.231 0 23.926 10.526 23.926 23.472 0 12.946-10.695 23.472-23.926 23.472-13.23 0-23.925-10.526-23.925-23.472 0-12.946 10.694-23.472 23.925-23.472z" stroke="#000" stroke-opacity=".3" stroke-width="2"/><path fill-rule="evenodd" clip-rule="evenodd" d="M26.24 16.393c5.424 0 9.821 4.397 9.821 9.822 0 5.424-4.397 9.822-9.822 9.822-5.424 0-9.821-4.398-9.821-9.822 0-5.425 4.397-9.822 9.822-9.822z" fill="#62D1BA"/></svg>
